exported-svg/settings.svg

<svg height="24" viewBox="0 0 24 24" width="24" xmlns="http://www.w3.org/2000/svg"><path d="m12.5 16c-1.9329966 0-3.5-1.5670034-3.5-3.5s1.5670034-3.5 3.5-3.5 3.5 1.5670034 3.5 3.5-1.5670034 3.5-3.5 3.5zm0-1c1.3807119 0 2.5-1.1192881 2.5-2.5s-1.1192881-2.5-2.5-2.5-2.5 1.1192881-2.5 2.5 1.1192881 2.5 2.5 2.5zm8.83-5h.17c1.3807119 0 2.5 1.1192881 2.5 2.5s-1.1192881 2.5-2.5 2.5h-.0880058c-.4583572.0018241-.8718615.275668-1.0524243.6969657-.1919558.4350101-.1008754.9373323.2239835 1.2694809l.0598033.0598034c.4694426.4689206.7332166 1.1052269.7332166 1.76875s-.263774 1.2998294-.7328233 1.7683567c-.4689206.4694426-1.1052269.7332166-1.76875.7332166s-1.2998294-.263774-1.7685534-.7330199l-.0560791-.0561221c-.3360695-.3287368-.8383917-.4198172-1.2734018-.2278614-.4212977.1805628-.6951416.5940671-.6969657 1.0504301v.17c0 1.3807119-1.1192881 2.5-2.5 2.5s-2.5-1.1192881-2.5-2.5l.0001367-.0783077c-.0110423-.4720779-.30954389-.8894273-.78201937-1.064261-.43009308-.1898172-.93241531-.0987368-1.26456394.2261221l-.05980339.0598033c-.46892064.4694426-1.10522688.7332166-1.76875.7332166s-1.29982936-.263774-1.76835667-.7328233c-.46944261-.4689206-.73321664-1.1052269-.73321664-1.76875s.26377403-1.2998294.73301992-1.7685534l.0561221-.0560791c.32873682-.3360695.41981723-.8383917.22786138-1.2734018-.18056275-.4212977-.59406706-.6951416-1.05043009-.6969657h-.17c-1.38071187 0-2.5-1.1192881-2.5-2.5s1.11928813-2.5 2.5-2.5l.07830771.0001367c.47207791-.0110423.8894273-.30954389 1.064261-.78201937.18981723-.43009308.09873682-.93241531-.2261221-1.26456394l-.05980328-.05980339c-.46944261-.46892064-.73321664-1.10522688-.73321664-1.76875s.26377403-1.29982936.73282331-1.76835667c.46892064-.46944261 1.10522688-.73321664 1.76875-.73321664s1.29982936.26377403 1.76855339.73301992l.05607909.0561221c.33606954.32873682.83839177.41981723 1.26848485.23l.14715505-.03102892c.38583437-.19324252.63299496-.58805667.63472762-1.02153979v-.17c0-1.38071187 1.1192881-2.5 2.5-2.5s2.5 1.11928813 2.5 2.5v.08800584c.0018241.45835719.275668.8718615.7018827 1.05456287.4300931.18981723.9324153.09873682 1.2645639-.2261221l.0598034-.05980328c.4689206-.46944261 1.1052269-.73321664 1.76875-.73321664s1.2998294.26377403 1.7683567.73282331c.4694426.46892064.7332166 1.10522688.7332166 1.76875s-.263774 1.29982936-.7330199 1.76855339l-.0561221.05607909c-.3287368.33606954-.4198172.83839177-.23 1.26848485l.0310289.14715505c.1932425.38583437.5880567.63299496 1.0215398.63472762zm.08 4h.09c.8284271 0 1.5-.6715729 1.5-1.5s-.6715729-1.5-1.5-1.5h-.1719942c-.8569286-.0034217-1.6300019-.5153908-1.9675757-1.30303428l-.0324482-.15807989c-.3081112-.78499885-.1288459-1.6818472.4684647-2.29243922l.0601967-.06019661c.2816656-.28135239.43993-.66313613.43993-1.06125s-.1582644-.77989761-.4403233-1.06164333c-.2813524-.28166556-.6631361-.43992998-1.06125-.43992998s-.7798976.15826442-1.0614466.4401267l-.0639209.0638779c-.6283039.61459493-1.5674281.78487569-2.3665982.43213862-.7876435-.33757382-1.2996126-1.1106471-1.3030343-1.96956991v-.09c0-.82842712-.6715729-1.5-1.5-1.5s-1.5.67157288-1.5 1.5v.17199416c-.0034217.85692865-.5153908 1.63000193-1.30303428 1.96757575l-.15807989.03244821c-.78499885.30811114-1.6818472.12884584-2.29243922-.46846473l-.06019661-.06019672c-.28135239-.28166556-.66313613-.43992998-1.06125-.43992998s-.77989761.15826442-1.06164333.44032331c-.28166556.28135239-.43992998.66313613-.43992998 1.06125s.15826442.77989761.4401267 1.06144661l.0638779.06392091c.61459493.62830393.78487569 1.56742809.44183676 2.34222302-.30473341.82856016-1.08499531 1.38662826-1.97926805 1.40740946h-.09c-.82842712 0-1.5.6715729-1.5 1.5s.67157288 1.5 1.5 1.5l.17199416.000004c.85692865.0034177 1.63000193.5153868 1.96543713 1.2981133.35487569.8040871.18459493 1.7432113-.4338779 2.3754361l-.06019672.0601966c-.28166556.2813524-.43992998.6631361-.43992998 1.06125s.15826442.7798976.44032331 1.0616433c.28135239.2816656.66313613.43993 1.06125.43993s.77989761-.1582644 1.06144661-.4401267l.06392091-.0638779c.62830393-.6145949 1.56742809-.7848757 2.34222302-.4418368.82856016.3047335 1.38662826 1.0849954 1.40740946 1.9792681v.09c0 .8284271.6715729 1.5 1.5 1.5s1.5-.6715729 1.5-1.5l.000004-.1719942c.0034177-.8569286.5153868-1.6300019 1.2981133-1.9654371.8040871-.3548757 1.7432113-.1845949 2.3754361.4338779l.0601966.0601967c.2813524.2816656.6631361.43993 1.06125.43993s.7798976-.1582644 1.0616433-.4403233c.2816656-.2813524.43993-.6631361.43993-1.06125s-.1582644-.7798976-.4401267-1.0614466l-.0638779-.0639209c-.6139699-.627665-.7845289-1.5655183-.4310811-2.3690616.3381291-.7862476 1.1104855-1.2971528 1.9685124-1.3005709z"/></svg>

<?xml version="1.0" encoding="UTF-8"?>
<svg width="24px" height="24px" viewBox="0 0 24 24" version="1.1" xmlns="http://www.w3.org/2000/svg" xmlns:xlink="http://www.w3.org/1999/xlink">
    <!-- Generator: Sketch 55.2 (78181) - https://sketchapp.com -->
    <title>settings</title>
    <desc>Created with Sketch.</desc>
    <g id="settings" stroke="none" stroke-width="1" fill="none" fill-rule="evenodd">
        <path d="M12.5,16 C14.4329966,16 16,14.4329966 16,12.5 C16,10.5670034 14.4329966,9 12.5,9 C10.5670034,9 9,10.5670034 9,12.5 C9,14.4329966 10.5670034,16 12.5,16 Z M12.5,15 C11.1192881,15 10,13.8807119 10,12.5 C10,11.1192881 11.1192881,10 12.5,10 C13.8807119,10 15,11.1192881 15,12.5 C15,13.8807119 13.8807119,15 12.5,15 Z" id="Oval" fill="#000000" fill-rule="nonzero"></path>
        <path d="M21.33,10 L21.5,10 C22.8807119,10 24,11.1192881 24,12.5 C24,13.8807119 22.8807119,15 21.5,15 L21.4119942,15 C20.953637,15.0018241 20.5401327,15.275668 20.3595699,15.6969657 C20.1676141,16.1319758 20.2586945,16.634298 20.5835534,16.9664466 L20.6433567,17.02625 C21.1127993,17.4951706 21.3765733,18.1314769 21.3765733,18.795 C21.3765733,19.4585231 21.1127993,20.0948294 20.64375,20.5633567 C20.1748294,21.0327993 19.5385231,21.2965733 18.875,21.2965733 C18.2114769,21.2965733 17.5751706,21.0327993 17.1064466,20.5635534 L17.0503675,20.5074313 C16.714298,20.1786945 16.2119758,20.0876141 15.7769657,20.2795699 C15.355668,20.4601327 15.0818241,20.873637 15.08,21.33 L15.08,21.5 C15.08,22.8807119 13.9607119,24 12.58,24 C11.1992881,24 10.08,22.8807119 10.08,21.5 L10.0801367,21.4216923 C10.0690944,20.9496144 9.77059281,20.532265 9.29811733,20.3574313 C8.86802425,20.1676141 8.36570202,20.2586945 8.03355339,20.5835534 L7.97375,20.6433567 C7.50482936,21.1127993 6.86852312,21.3765733 6.205,21.3765733 C5.54147688,21.3765733 4.90517064,21.1127993 4.43664333,20.64375 C3.96720072,20.1748294 3.70342669,19.5385231 3.70342669,18.875 C3.70342669,18.2114769 3.96720072,17.5751706 4.43644661,17.1064466 L4.49256871,17.0503675 C4.82130553,16.714298 4.91238594,16.2119758 4.72043009,15.7769657 C4.53986734,15.355668 4.12636303,15.0818241 3.67,15.08 L3.5,15.08 C2.11928813,15.08 1,13.9607119 1,12.58 C1,11.1992881 2.11928813,10.08 3.5,10.08 L3.57830771,10.0801367 C4.05038562,10.0690944 4.46773501,9.77059281 4.64256871,9.29811733 C4.83238594,8.86802425 4.74130553,8.36570202 4.41644661,8.03355339 L4.35664333,7.97375 C3.88720072,7.50482936 3.62342669,6.86852312 3.62342669,6.205 C3.62342669,5.54147688 3.88720072,4.90517064 4.35625,4.43664333 C4.82517064,3.96720072 5.46147688,3.70342669 6.125,3.70342669 C6.78852312,3.70342669 7.42482936,3.96720072 7.89355339,4.43644661 L7.94963248,4.49256871 C8.28570202,4.82130553 8.78802425,4.91238594 9.21811733,4.72256871 L9.36527238,4.69153979 C9.75110675,4.49829727 9.99826734,4.10348312 10,3.67 L10,3.5 C10,2.11928813 11.1192881,1 12.5,1 C13.8807119,1 15,2.11928813 15,3.5 L15,3.58800584 C15.0018241,4.04636303 15.275668,4.45986734 15.7018827,4.64256871 C16.1319758,4.83238594 16.634298,4.74130553 16.9664466,4.41644661 L17.02625,4.35664333 C17.4951706,3.88720072 18.1314769,3.62342669 18.795,3.62342669 C19.4585231,3.62342669 20.0948294,3.88720072 20.5633567,4.35625 C21.0327993,4.82517064 21.2965733,5.46147688 21.2965733,6.125 C21.2965733,6.78852312 21.0327993,7.42482936 20.5635534,7.89355339 L20.5074313,7.94963248 C20.1786945,8.28570202 20.0876141,8.78802425 20.2774313,9.21811733 L20.3084602,9.36527238 C20.5017027,9.75110675 20.8965169,9.99826734 21.33,10 Z M21.41,14 L21.5,14 C22.3284271,14 23,13.3284271 23,12.5 C23,11.6715729 22.3284271,11 21.5,11 L21.3280058,11 C20.4710772,10.9965783 19.6980039,10.4846092 19.3604301,9.69696572 L19.3279819,9.53888583 C19.0198707,8.75388698 19.199136,7.85703863 19.7964466,7.24644661 L19.8566433,7.18625 C20.1383089,6.90489761 20.2965733,6.52311387 20.2965733,6.125 C20.2965733,5.72688613 20.1383089,5.34510239 19.85625,5.06335667 C19.5748976,4.78169111 19.1931139,4.62342669 18.795,4.62342669 C18.3968861,4.62342669 18.0151024,4.78169111 17.7335534,5.06355339 L17.6696325,5.12743129 C17.0413286,5.74202622 16.1022044,5.91230698 15.3030343,5.55956991 C14.5153908,5.22199609 14.0034217,4.44892281 14,3.59 L14,3.5 C14,2.67157288 13.3284271,2 12.5,2 C11.6715729,2 11,2.67157288 11,3.5 L11,3.67199416 C10.9965783,4.52892281 10.4846092,5.30199609 9.69696572,5.63956991 L9.53888583,5.67201812 C8.75388698,5.98012926 7.85703863,5.80086396 7.24644661,5.20355339 L7.18625,5.14335667 C6.90489761,4.86169111 6.52311387,4.70342669 6.125,4.70342669 C5.72688613,4.70342669 5.34510239,4.86169111 5.06335667,5.14375 C4.78169111,5.42510239 4.62342669,5.80688613 4.62342669,6.205 C4.62342669,6.60311387 4.78169111,6.98489761 5.06355339,7.26644661 L5.12743129,7.33036752 C5.74202622,7.95867145 5.91230698,8.89779561 5.56926805,9.67259054 C5.26453464,10.5011507 4.48427274,11.0592188 3.59,11.08 L3.5,11.08 C2.67157288,11.08 2,11.7515729 2,12.58 C2,13.4084271 2.67157288,14.08 3.5,14.08 L3.67199416,14.080004 C4.52892281,14.0834217 5.30199609,14.5953908 5.63743129,15.3781173 C5.99230698,16.1822044 5.82202622,17.1213286 5.20355339,17.7535534 L5.14335667,17.81375 C4.86169111,18.0951024 4.70342669,18.4768861 4.70342669,18.875 C4.70342669,19.2731139 4.86169111,19.6548976 5.14375,19.9366433 C5.42510239,20.2183089 5.80688613,20.3765733 6.205,20.3765733 C6.60311387,20.3765733 6.98489761,20.2183089 7.26644661,19.9364466 L7.33036752,19.8725687 C7.95867145,19.2579738 8.89779561,19.087693 9.67259054,19.4307319 C10.5011507,19.7354654 11.0592188,20.5157273 11.08,21.41 L11.08,21.5 C11.08,22.3284271 11.7515729,23 12.58,23 C13.4084271,23 14.08,22.3284271 14.08,21.5 L14.080004,21.3280058 C14.0834217,20.4710772 14.5953908,19.6980039 15.3781173,19.3625687 C16.1822044,19.007693 17.1213286,19.1779738 17.7535534,19.7964466 L17.81375,19.8566433 C18.0951024,20.1383089 18.4768861,20.2965733 18.875,20.2965733 C19.2731139,20.2965733 19.6548976,20.1383089 19.9366433,19.85625 C20.2183089,19.5748976 20.3765733,19.1931139 20.3765733,18.795 C20.3765733,18.3968861 20.2183089,18.0151024 19.9364466,17.7335534 L19.8725687,17.6696325 C19.2585988,17.0419675 19.0880398,16.1041142 19.4414876,15.3005709 C19.7796167,14.5143233 20.5519731,14.0034181 21.41,14 Z" id="Shape" fill="#000000" fill-rule="nonzero"></path>
    </g>
</svg>
